X:1
T: Delnadamph Lodge
C:Alexander Walker
R:Reel
Q: 232
K:A
M:4/4
L:1/8
|:d|cA A1/2A1/2A A2 EA|ce ec fB Bd|cA BG A2 EC|DF EG AA, A,d|
cA A1/2A1/2A A2 EA|ce ec fB Bd|cA BG A2 EC|DF EG AA, A,c|
A1/2A1/2A cA FA EA|FA Bc de fa|A1/2A1/2A cA FA Ed|ce fg aA Ac|
A1/2A1/2A cA FA EA|FA Bc de fg|ag fe fg af|eE FG A3:|
